X: 8
T: No_114_My_Voice_Is_Heard.krn
N: Derived from No_114_My_Voice_Is_Heard.krn
%%abc-version 2.0
%%abcx-abcm2ps-target-version 5.9.1 (29 Sep 2008)
%%abc-creator hum2abc beta
%%abcx-conversion-date 2019/03/15 08:29:13
%%humdrum-veritas 4265220550
%%humdrum-veritas-data 4032168232
%%linebreak <none>
%%barnumbers 0
L: 1/8
M: 2/4
%%staves {1 2}
V: 1 clef=bass
V: 2 clef=bass
K: Ab
[V:1] F [I:setbarnb 1]| 
[V:2] G,, | 
[V:1] F4- | 
[V:2] (3!accent!G,, z G,, (3!accent!G,, z G,, | 
[V:1] F2E3/E/ | 
[V:2] z4 | 
[V:1] E4- | 
[V:2] z4 | 
[V:1] E2C3/E/ | 
[V:2] z4 | 
[V:1] E4 | 
[V:2] z4 | 
[V:1] E2_C3/B,/ | 
[V:2] z4 | 
[V:1] (3E_CB, B,3/B,/ | 
[V:2] z4 | 
[V:1] B,3B, ||  
[V:2] z4 ||  
[V:1] [M:3/4]B,2-B,7/F/ ||  
[V:2] [M:3/4]z6 ||  
[V:1] [M:2/4]F4- | 
[V:2] [M:2/4]z4 | 
[V:1] F2E3/E/ | 
[V:2] z4 | 
[V:1] E4- | 
[V:2] z4 | 
[V:1] E2_C3/E/ | 
[V:2] z4 | 
[V:1] E4 | 
[V:2] z4 | 
[V:1] E2_C3/B,/ | 
[V:2] z4 | 
[V:1] (3E_CB, B,3/B,/ | 
[V:2] z4 | 
[V:1] B,3B, ||  
[V:2] z4 ||  
[V:1] [M:3/4]B,4-B,E/E/ ||  
[V:2] [M:3/4]z6 ||  
[V:1] [M:2/4]E4 | 
[V:2] [M:2/4]z4 | 
[V:1] E_C B,3/C/ | 
[V:2] z4 | 
[V:1] B,4 | 
[V:2] z4 | 
[V:1] B,B, G,3/C/ | 
[V:2] z4 | 
[V:1] B,4 | 
[V:2] z4 | 
[V:1] C2B,3/C/ | 
[V:2] z4 | 
[V:1] (3!accent!G,A,G, (3!accent!F,G,F, ||  
[V:2] z4 ||  
[V:1] [M:3/4]E,3/E,/E,3E, | 
[V:2] [M:3/4]z6 | 
[V:1] E,2-E,7/B,/ ||  
[V:2] z6 ||  
[V:1] [M:2/4]B,4 | 
[V:2] [M:2/4]z4 | 
[V:1] B,2G,3/C/ | 
[V:2] z4 | 
[V:1] B,4 | 
[V:2] z4 | 
[V:1] C2B,3/C/ | 
[V:2] z4 | 
[V:1] (3!accent!G,A,G, (3!accent!F,G,F, | 
[V:2] z4 | 
[V:1] E,3/E,/E,2- | 
[V:2] z4 | 
[V:1] E,2C,3/E,/ | 
[V:2] z4 | 
[V:1] E,4 ||  
[V:2] z4 ||  
[V:1] [M:3/4]E,2E,2C,2 | 
[V:2] [M:3/4]z6 | 
[V:1] B,,3/B,,/B,,2-B,,3/B,,/ | 
[V:2] z6 | 
[V:1] B,,6 |]  
[V:2] z6 |]  



% FRACTION = 0.499634BUT SHOULD BE 0
% FRACTION = 0.499634BUT SHOULD BE 0
% FRACTION = 0.499634BUT SHOULD BE 0
